!!!!SEGMENT: pl-cz--d-ii-43--004_elsner-jozef-msza-pasterska-credo.krn
!!!id: 18xx:200
!!!COM: Elsner, Józef
!!!OTL: Msza pasterska - Credo
!!!PDT: 1843
!!!SMS-siglum: PL-CZ
!!!SMS-shelfmark: D II-43
!!!NIFC-rismID:
!!!URL-scan: http://repozytorium.nifc.pl/skany/pl-cz-nut--dii-43
!!!ONB-nifc: UWAGA: części Mszy: Kyrie, Gloria, Graduale, Credo, Offertorium, Sanctus, Benedictus, Agnus
!!!OMD: Moderato
!!!ENC: Andrzej Kubiczek
!!!END: 2020-03-05
**kern	**kern	**dynam	**kern	**dynam	**kern	**text	**dynam	**kern	**text	**dynam	**kern	**text	**dynam	**kern	**text	**dynam
*part6	*part6	*part6	*part5	*part5	*part4	*part4	*part4	*part3	*part3	*part3	*part2	*part2	*part2	*part1	*part1	*part1
*staff7	*staff6	*	*staff5	*	*staff4	*staff4	*	*staff3	*staff3	*	*staff2	*staff2	*	*staff1	*staff1	*
*I"Organo	*	*	*I"Violoncello	*	*I"Basso	*	*	*I"Tenore	*	*	*I"Soprano Secundo	*	*	*I"Soprano Primo	*	*
*I'Org	*	*	*I'Vc	*	*I'B	*	*	*I'T.	*	*	*I'S II	*	*	*I'S I	*	*
*clefF4	*clefG2	*	*clefF4	*	*clefF4	*	*	*clefC4	*	*	*clefG2	*	*	*clefG2	*	*
*k[f#c#g#]	*k[f#c#g#]	*	*k[f#c#g#]	*	*k[f#c#g#]	*	*	*k[f#c#g#]	*	*	*k[f#c#g#]	*	*	*k[f#c#g#]	*	*
*M2/2	*M2/2	*	*M2/2	*	*M2/2	*	*	*M2/2	*	*	*M2/2	*	*	*M2/2	*	*
*met(c|)	*met(c|)	*	*met(c|)	*	*met(c|)	*	*	*met(c|)	*	*	*met(c|)	*	*	*met(c|)	*	*
=1	=1	=1	=1	=1	=1	=1	=1	=1	=1	=1	=1	=1	=1	=1	=1	=1
*	*	*	*	*	*	*ij	*	*	*ij	*	*	*ij	*	*	*ij	*
!	!LO:TX:a:i:t=Moderato	!	!LO:TX:a:i:t=adlibitum	!	!	!	!	!	!	!	!	!	!	!LO:TX:a:i:t=Moderato.	!	!
2r	1c#/ 1e/ 1a/	.	2r	.	1r	.	.	1r	.	.	1r	.	.	1r	.	.
[2A\	.	.	[2A\	.	.	.	.	.	.	.	.	.	.	.	.	.
=2	=2	=2	=2	=2	=2	=2	=2	=2	=2	=2	=2	=2	=2	=2	=2	=2
4A\]	[1e/ (>1b/	.	4A\]	.	1r	.	.	1r	.	.	1r	.	.	1r	.	.
8G#\L	.	.	8G#\L	.	.	.	.	.	.	.	.	.	.	.	.	.
8F#\J	.	.	8F#\J	.	.	.	.	.	.	.	.	.	.	.	.	.
4G#\	.	.	4G#\	.	.	.	.	.	.	.	.	.	.	.	.	.
4E\	.	.	4E\	.	.	.	.	.	.	.	.	.	.	.	.	.
=3	=3	=3	=3	=3	=3	=3	=3	=3	=3	=3	=3	=3	=3	=3	=3	=3
!	!LO:SIC:v=niejednoznaczny zapis ligatury w tt. 3-4	!	!	!	!	!	!	!	!	!	!	!	!	!	!	!
4A\	1e/_ 1a/) [1cc#/	.	4A\	.	2r	.	.	2r	.	.	2r	.	.	2r	.	.
8AA/L	.	.	8AA/L	.	.	.	.	.	.	.	.	.	.	.	.	.
8C#/J	.	.	8C#/J	.	.	.	.	.	.	.	.	.	.	.	.	.
4E/	.	.	4E\	.	4r	.	.	4r	.	.	4r	.	.	4r	.	.
4C#/	.	.	4C#/	.	4A\	Wie-	.	4e\	Wie-	.	4a\	Wie-	.	4cc#\	Wie-	.
=4	=4	=4	=4	=4	=4	=4	=4	=4	=4	=4	=4	=4	=4	=4	=4	=4
4AA/	1e/_ 1a/ 1cc#/_	.	4AA/	.	2A\	-rze-	.	2e\	-rze-	.	2a\	-rze-	.	2cc#\	-rze-	.
4C#/	.	.	4C#/	.	.	.	.	.	.	.	.	.	.	.	.	.
4E/	.	.	4E/	.	2A\	-my	.	2e\	-my	.	2a\	-my	.	2cc#\	-my	.
4C#/	.	.	4C#/	.	.	.	.	.	.	.	.	.	.	.	.	.
=5	=5	=5	=5	=5	=5	=5	=5	=5	=5	=5	=5	=5	=5	=5	=5	=5
4AA/	1e/] 1a/ 1cc#/]	.	4AA/	.	2A\	w Bo-	.	2e\	w Bo-	.	2a/	w Bo-	.	2cc#\	w Bo-	.
4C#/	.	.	4C#/	.	.	.	.	.	.	.	.	.	.	.	.	.
4E/	.	.	4E/	.	4A\	-ga	.	4e\	-ga	.	4a/	-ga	.	4cc#\	-ga	.
4A\	.	.	4A\	.	4A\	ied-	.	4e\	ied-	.	4a/	ied-	.	4cc#\	ied-	.
=6	=6	=6	=6	=6	=6	=6	=6	=6	=6	=6	=6	=6	=6	=6	=6	=6
*	*^	*	*	*	*	*	*	*	*	*	*	*	*	*	*	*
4G#\	2b/ 2dd/	[>2e\	.	4G#\	.	2G#\	-ne-	.	2e\	-ne-	.	2b\	-ne-	.	2dd\	-ne-	.
4E\	.	.	.	4E\	.	.	.	.	.	.	.	.	.	.	.	.	.
4A\	[>2a/ 2cc#/	4e\]	.	4A\	.	4A\	-go	.	4e\	-go	.	4a/	-go	.	4cc#\	-go	.
4F#\	.	4f#\	.	4F#\	.	4F#\	na	.	4f#\	na	.	4a/	na	.	4cc#\	na	.
=7	=7	=7	=7	=7	=7	=7	=7	=7	=7	=7	=7	=7	=7	=7	=7	=7	=7
!	!	!	!	!	!	!LO:SIC:v=niejednoznaczny zapis łuku	!	!	!LO:SIC:v=niejednoznaczny zapis łuku	!	!	!	!	!	!	!	!
4D\	2a/] 2b/	2f#\	.	4D\	.	(4D\	wie-	.	(2f#\	wie-	.	(2a/	wie-	.	1b\	wie-	.
4D#X\	.	.	.	4D#X\	.	4D#X\	.	.	.	.	.	.	.	.	.	.	.
4E\	2g#/	4e\	.	4E\	.	2E\)	.	.	4e\)	.	.	2g#/)	.	.	.	.	.
4EE/	.	4d\	.	4EE/	.	.	.	.	4d\	.	.	.	.	.	.	.	.
*	*v	*v	*	*	*	*	*	*	*	*	*	*	*	*	*	*	*
=8	=8	=8	=8	=8	=8	=8	=8	=8	=8	=8	=8	=8	=8	=8	=8	=8
4A\	2c#/ 2e/ 2a/	.	4A\	.	2A\	-ki	.	2c#\	-ki	.	2a/	-ki	.	2a/	-ki	.
8AA/L	.	.	8AA/L	.	.	.	.	.	.	.	.	.	.	.	.	.
8C#/J	.	.	8C#/J	.	.	.	.	.	.	.	.	.	.	.	.	.
4E\	2e/ 2a/ 2cc#/	.	4E\	.	4r	.	.	4r	.	.	4r	.	.	4r	.	.
4C#/	.	.	4C#/	.	4A\	co	.	4e\	co	.	4a/	co	.	4cc#\	co	.
=9	=9	=9	=9	=9	=9	=9	=9	=9	=9	=9	=9	=9	=9	=9	=9	=9
4AA/	1e/ [1a/ [1cc#/	.	4AA/	.	2A\	ka-	.	2e\	ka-	.	2a/	ka-	.	2cc#\	ka-	.
4C#/	.	.	4C#/	.	.	.	.	.	.	.	.	.	.	.	.	.
4E/	.	.	4E/	.	2A\	-rze	.	2e\	-rze	.	2a/	-rze	.	2cc#\	-rze	.
4C#/	.	.	4C#/	.	.	.	.	.	.	.	.	.	.	.	.	.
=10	=10	=10	=10	=10	=10	=10	=10	=10	=10	=10	=10	=10	=10	=10	=10	=10
!!linebreak:original
4AA/	1e/ 1a/] 1cc#/]	.	4AA/	.	2A\	zbrod-	.	2e\	zbrod-	.	2a/	zbrod-	.	2cc#\	zbrod-	.
4C#/	.	.	4C#/	.	.	.	.	.	.	.	.	.	.	.	.	.
4E/	.	.	4E\	.	4A\	-nie	.	4e\	-nie	.	4a/	-nie	.	4cc#\	-nie	.
4A\	.	.	4A\	.	4A\	a	.	4e\	a	.	4a/	a	.	4cc#\	a	.
=11	=11	=11	=11	=11	=11	=11	=11	=11	=11	=11	=11	=11	=11	=11	=11	=11
*	*^	*	*	*	*	*	*	*	*	*	*	*	*	*	*	*
4G#\	2b/ 2dd/	2.e\	.	4G#\	.	2G#\	cno-	.	2e\	cno-	.	2b/	cno-	.	2dd\	cno-	.
4E\	.	.	.	4E\	.	.	.	.	.	.	.	.	.	.	.	.	.
4A\	2a/ 2cc#/	.	.	4A\	.	4A\	-ty	.	4e\	-ty	.	4a/	-ty	.	4cc#\	-ty	.
4F#\	.	[4f#\	.	4F#\	.	4F#\	na-	.	4f#\	na-	.	4a/	na-	.	4cc#\	na-	.
=12	=12	=12	=12	=12	=12	=12	=12	=12	=12	=12	=12	=12	=12	=12	=12	=12	=12
!	!LO:TX:t=P:brak wyświetlania łuku:problem	!	!	!	!	!LO:SIC:v=niejednoznaczny zapis łuku	!	!	!LO:SIC:v=niejednoznaczny zapis łuku	!	!	!	!	!	!	!	!
4D\	&[2a/ 2b/	2f#\]	.	4D\	.	(4D\	-gra-	.	(2f#\	-gra-	.	(2a/	-gra-	.	1b\	-gra-	.
4D#X\	.	.	.	4D#X\	.	4D#X\	.	.	.	.	.	.	.	.	.	.	.
4E\	2g#/	4e\	.	4E\	.	2E\)	.	.	4e\	.	.	2g#/)	.	.	.	.	.
4EE/	.	4d\	.	4EE/	.	.	.	.	4d\)	.	.	.	.	.	.	.	.
*	*v	*v	*	*	*	*	*	*	*	*	*	*	*	*	*	*	*
=13	=13	=13	=13	=13	=13	=13	=13	=13	=13	=13	=13	=13	=13	=13	=13	=13
4AA/	2c#/ 2e/ 2a/&]	.	4AA/	.	2A\	-dza	.	2c#\	-dza	.	2a/	-dza	.	2a/	-dza	.
4A\	.	.	4A\	.	.	.	.	.	.	.	.	.	.	.	.	.
4E\	2e\ 2a\ [2ee\	.	4E\	.	4r	.	.	4r	.	.	4r	.	.	4r	.	.
4C#\	.	.	4C#/	.	4C#/	Swiat	.	4A\	Swiat	.	4a/	Swiat	.	4ee\	Swiat	.
=14	=14	=14	=14	=14	=14	=14	=14	=14	=14	=14	=14	=14	=14	=14	=14	=14
4AA/	1e/ 1a/ 1ee/_	.	4AA/	.	2C#/	ca-	.	2A\	ca-	.	2a/	ca-	.	2ee\	ca-	.
4c#\	.	.	4c#\	.	.	.	.	.	.	.	.	.	.	.	.	.
4A\	.	.	4A\	.	2C#/	-ły	.	2A\	-ły	.	2a/	-ły	.	2ee\	-ły	.
4E\	.	.	4E\	.	.	.	.	.	.	.	.	.	.	.	.	.
=15	=15	=15	=15	=15	=15	=15	=15	=15	=15	=15	=15	=15	=15	=15	=15	=15
4C#\	1e/ 1a/ 1ee/]	.	4C#\	.	2C#/	Je-	.	2A\	Je-	.	2a/	Je-	.	2ee\	Je-	.
4A\	.	.	4A\	.	.	.	.	.	.	.	.	.	.	.	.	.
4E\	.	.	4E\	.	4C#/	-go	.	4A\	-go	.	4a/	-go	.	4ee\	-go	.
4C#\	.	.	4C#\	.	4C#/	ist-	.	4A\	ist-	.	4a/	ist-	.	4ee\	ist-	.
=16	=16	=16	=16	=16	=16	=16	=16	=16	=16	=16	=16	=16	=16	=16	=16	=16
!	!LO:SIC:v=niejednoznaczny zapis łuku	!	!	!	!	!	!	!	!	!	!	!	!	!	!	!
4D\	(<2a\ 2dd\ 2ff#\	.	4D\	.	2D\	-nie-	.	2A\	-nie-	.	2a/	-nie-	.	2ff#\	-nie-	.
4A\	.	.	4A\	.	.	.	.	.	.	.	.	.	.	.	.	.
4C#\	2ee\	.	4C#/	.	4C#/	-ie	.	4A\	-ie	.	4a/	-ie	.	4ee\	-ie	.
4A\	.	.	4A\	.	4C#/	O-	.	4A\	O-	.	4a/	O-	.	4ee\	O-	.
=17	=17	=17	=17	=17	=17	=17	=17	=17	=17	=17	=17	=17	=17	=17	=17	=17
4BB/	2g#\) 2b\ 2ee\	.	4BB/	.	1BB/	-pie-	.	2B\	-pie-	.	2g#/	-pie-	.	2ee\	-pie	.
4B\	.	.	4B\	.	.	.	.	.	.	.	.	.	.	.	.	.
4BB/	2f#/ 2a/ 2b/ 2dd#X/	.	4BB/	.	.	.	.	2A\	.	.	2f#/	.	.	2dd#X\	.	.
4B\	.	.	4B\	.	.	.	.	.	.	.	.	.	.	.	.	.
=18	=18	=18	=18	=18	=18	=18	=18	=18	=18	=18	=18	=18	=18	=18	=18	=18
!!pagebreak:original
!	!LO:SIC:v=niejednoznaczny zapis łuku	!	!	!	!	!	!	!	!	!	!	!	!	!	!	!
!	!LO:TX:t=P:złe wyświetlanie łuku:problem	!	!	!	!	!	!	!	!	!	!	!	!	!	!	!
4E/	&(>1g#\ 1b\ [1ee\	.	4E/	.	2E\	-ki	.	2G#/	-ki	.	2e/	-ki	.	2ee\	-ki	.
4EE/	.	.	4EE/	.	.	.	.	.	.	.	.	.	.	.	.	.
4E/	.	.	4E/	.	4r	.	.	4r	.	.	4r	.	.	4r	.	.
4D/	.	.	4D/	.	4D\	w mi-	.	4B\	w mi-	.	4g#\	w mi-	.	4ee\	w mi-	.
=19	=19	=19	=19	=19	=19	=19	=19	=19	=19	=19	=19	=19	=19	=19	=19	=19
4C#\	1e/&) 1a/ 1ee/]	.	4C#\	.	2C#/	-ło-	.	2A\	-ło-	.	2a/	-ło-	.	2ee\	-ło-	.
4A\	.	.	4A\	.	.	.	.	.	.	.	.	.	.	.	.	.
4E\	.	.	4E\	.	2C#/	-śći	.	2A\	-śći	.	2a/	-śći	.	2ee\	-śći	.
4C#\	.	.	4C#\	.	.	.	.	.	.	.	.	.	.	.	.	.
=20	=20	=20	=20	=20	=20	=20	=20	=20	=20	=20	=20	=20	=20	=20	=20	=20
4D\	2a\ 2ff#\	.	4D\	.	2D/	Je-	.	2A\	Je-	.	2a/	Je-	.	2ff#\	Je-	.
4D\ 4d\	.	.	4d\	.	.	.	.	.	.	.	.	.	.	.	.	.
4C#\ 4c#\	4e\ 4a\ 4ee\	.	4c#\	.	4C#/	-go	.	4e\	-go	.	4a/	-go	.	4ee\	-go	.
4BB\ 4B\	[4e\ 4g#\ 4dd\	.	4B\	.	4BB/	i	.	4e\	i	.	4g#/	i	.	4dd\	i	.
=21	=21	=21	=21	=21	=21	=21	=21	=21	=21	=21	=21	=21	=21	=21	=21	=21
*	*^	*	*	*	*	*	*	*	*	*	*	*	*	*	*	*
4AA\ 4A\	2a/ 2cc#/	4e\]	.	4A\	.	(<4AA/	mą-	.	(4e\	mą-	.	2a/	mą-	.	2cc#\	mą-	.
4FF#\ 4F#\	.	4f#\	.	4F#\	.	4F#\)	.	.	4f#\)	.	.	.	.	.	.	.	.
2DD/ 2D/	4dd/	4f#\	.	4D\	.	4D\	-drość	.	4f#\	-drość	.	4f#/	-drość	.	4dd\	-drość	.
.	4f#/ 4b/	4d\ 4f#\	.	4d\	.	4D\	i	.	4d\	i	.	4f#/	i	.	4b\	i	.
*	*v	*v	*	*	*	*	*	*	*	*	*	*	*	*	*	*	*
=22	=22	=22	=22	=22	=22	=22	=22	=22	=22	=22	=22	=22	=22	=22	=22	=22
!LO:TX:t=P:1EE 1E na środku taktu:problem	!	!	!	!	!	!	!	!	!	!	!	!	!	!	!	!
1EE/ 1E/	2c#/ 2e/ 2a/	.	4E\	.	1E\	wła-	.	2c#\	wła-	.	1e/	wła-	.	2a/	wła-	.
.	.	.	4e\	.	.	.	.	.	.	.	.	.	.	.	.	.
.	2B/ 2d/ 2e/ 2g#/	.	4E\	.	.	.	.	2d\	.	.	.	.	.	2g#X/	.	.
.	.	.	4e\	.	.	.	.	.	.	.	.	.	.	.	.	.
=23	=23	=23	=23	=23	=23	=23	=23	=23	=23	=23	=23	=23	=23	=23	=23	=23
!	!	!	!	!LO:DY:a	!	!	!	!	!	!	!	!	!	!	!	!
2AA\ 2A\	2c#/ 2e/ 2a/	.	2A\	>	2AA/	-dza	.	2c#\	-dza	.	2e/	-dza	.	2a/	-dza	.
2GGn\ 2Gn\	2e/ 2a/ 2cc#/	.	[2Gn\	]]	2r	.	.	2r	.	.	2r	.	.	2r	.	.
=24	=24	=24	=24	=24	=24	=24	=24	=24	=24	=24	=24	=24	=24	=24	=24	=24
!	!LO:SIC:v=s=4GG	!	!	!	!	!	!	!	!	!	!	!	!	!	!	!
!	!LO:SIC:v=s=4G	!	!	!	!	!	!	!	!	!	!	!	!	!	!	!
!	!LO:SIC:v=niejednoznaczny zapis łuku	!	!	!	!	!	!	!	!	!	!	!	!	!	!	!
4GG#/ 4G#/	((1d/ 1a/ 1dd/	.	4G\]	.	1r	.	.	1r	.	.	1r	.	.	1r	.	.
8FF#/L 8F#/	.	.	8F#\L	.	.	.	.	.	.	.	.	.	.	.	.	.
8EE/J 8E/	.	.	8E\J	.	.	.	.	.	.	.	.	.	.	.	.	.
4FF#/ 4F#/	.	.	4F#\	.	.	.	.	.	.	.	.	.	.	.	.	.
4DD/ 4D/	.	.	4D\	.	.	.	.	.	.	.	.	.	.	.	.	.
=25	=25	=25	=25	=25	=25	=25	=25	=25	=25	=25	=25	=25	=25	=25	=25	=25
4CC#/ 4C#/	2gn/)) 2a/ 2ee/	.	4C#/	.	1r	.	.	1r	.	.	1r	.	.	1r	.	.
4AA/ 4A/	.	.	4A\	.	.	.	.	.	.	.	.	.	.	.	.	.
4DD/ 4D/	2f#/ 2a/ 2dd/	.	4D\	.	.	.	.	.	.	.	.	.	.	.	.	.
4AA/ 4A/	.	.	4A\	.	.	.	.	.	.	.	.	.	.	.	.	.
=26	=26	=26	=26	=26	=26	=26	=26	=26	=26	=26	=26	=26	=26	=26	=26	=26
!!linebreak:original
1AAA/ 1AA/	4a\ 4ff#\ 4aa\	.	1AA/	.	1r	.	.	1r	.	.	2r	.	.	2r	.	.
.	4gn\ 4ee\ 4ggn\	.	.	.	.	.	.	.	.	.	.	.	.	.	.	.
.	4f#\ 4dd\ 4ff#\	.	.	.	.	.	.	.	.	.	4r	.	.	4r	.	.
!	!	!	!	!	!	!	!	!	!	!	!LO:TX:a:i:t=dol&colon;	!	!	!LO:TX:a:i:t=dol&colon;	!	!
.	4e\ 4cc#\ 4ee\	.	.	.	.	.	.	.	.	.	4a/	Że	.	4a\	Że	.
=27	=27	=27	=27	=27	=27	=27	=27	=27	=27	=27	=27	=27	=27	=27	=27	=27
!	!	!LO:DY:b	!	!	!	!	!	!	!	!	!	!	!	!	!	!
[1DD/ [1D/	2f#\ 2a\ 2dd\	pp	1DD/	.	1r	.	.	1r	.	.	2d/	nie-	.	2dd\	nie-	.
.	2e\ 2gn\ 2cc#\	.	.	.	.	.	.	.	.	.	2e/	-smier-	.	2cc#\	-smier-	.
=28	=28	=28	=28	=28	=28	=28	=28	=28	=28	=28	=28	=28	=28	=28	=28	=28
*	*^	*	*	*	*	*	*	*	*	*	*	*	*	*	*	*
1DD/_ 1D/_	2f#\ 2a\ 2dd\	2reyy	.	1DD/	.	1r	.	.	1r	.	.	2f#/	-tel-	.	2dd\	-tel-	.
.	4cc#/	2gn\	.	.	.	.	.	.	.	.	.	4gn/	-ność	.	4cc#\	-ność	.
.	4b/	.	.	.	.	.	.	.	.	.	.	4g/	u	.	4b\	u	.
*	*v	*v	*	*	*	*	*	*	*	*	*	*	*	*	*	*	*
=29	=29	=29	=29	=29	=29	=29	=29	=29	=29	=29	=29	=29	=29	=29	=29	=29
1DD/_ 1D/_	2f#\ 2a\	.	1DD/	.	1r	.	.	1r	.	.	2f#/	Bo-	.	2a\	Bo-	.
.	4gn\ 4b\	.	.	.	.	.	.	.	.	.	4gn/	-ga	.	4b\	-ga	.
.	4f#\ 4a\	.	.	.	.	.	.	.	.	.	4f#/	nas	.	4a\	nas	.
=30	=30	=30	=30	=30	=30	=30	=30	=30	=30	=30	=30	=30	=30	=30	=30	=30
1DD/_ 1D/_	4.f#/ 4.a/	.	1DD/	.	1r	.	.	1r	.	.	(4.f#/	cze-	.	(4.a/	cze-	.
.	8e/ 8gn/	.	.	.	.	.	.	.	.	.	8e/)	.	.	8gn/)	.	.
.	4d/ 4f#/	.	.	.	.	.	.	.	.	.	4d/	-ka	.	4f#/	-ka	.
.	4f#/ 4a/	.	.	.	.	.	.	.	.	.	4f#/	dla	.	4a/	dla	.
=31	=31	=31	=31	=31	=31	=31	=31	=31	=31	=31	=31	=31	=31	=31	=31	=31
2DD/] 2D/]	2gn/ 2b/	.	2DD/	.	1r	.	.	1r	.	.	2gn/	któ-	.	2b\	któ-	.
[2D/	2f#/ 2a/	.	2D/	.	.	.	.	.	.	.	2f#/	-réy	.	2a/	-réy	.
=32	=32	=32	=32	=32	=32	=32	=32	=32	=32	=32	=32	=32	=32	=32	=32	=32
4D\]	2e/ 2gn/	.	4D/	.	1r	.	.	1r	.	.	2e/	czy-	.	2gn/	czy-	.
8C#\L	.	.	8C#/L	.	.	.	.	.	.	.	.	.	.	.	.	.
8BB\J	.	.	8BB/J	.	.	.	.	.	.	.	.	.	.	.	.	.
4AA/	4c#/ 4a/	.	4AA/	.	.	.	.	.	.	.	4c#/	-niem	.	4a/	-niem	.
4C#/	4A/ 4e/ 4g/	.	4C#/	.	.	.	.	.	.	.	4e/	an	.	4g/	an	.
=33	=33	=33	=33	=33	=33	=33	=33	=33	=33	=33	=33	=33	=33	=33	=33	=33
2D\	2A/ 2d/ 2f#/	.	2D\	.	1r	.	.	1r	.	.	2d/	zie-	.	2f#/	zie-	.
!	!	!	!	!	!	!	!	!	!	!	!	!	!	!LO:SIC:v=s=4g	!	!
4C#\	4e/ 4gn/	.	4C#/	.	.	.	.	.	.	.	4e/	-mi	.	4g#/	-mi	.
4D\	4d/ 4f#/	.	4D/	.	.	.	.	.	.	.	4d/	o-	.	4f#/	o-	.
=34	=34	=34	=34	=34	=34	=34	=34	=34	=34	=34	=34	=34	=34	=34	=34	=34
*	*^	*	*	*	*	*	*	*	*	*	*	*	*	*	*	*
[2AA/	4.c#/ 4.e/	1A\	.	[2AA/	.	2r	.	.	2r	.	.	(4.c#/	-fia-	.	(4.e/	-fia-	.
.	8d/ 8f#/	.	.	.	.	.	.	.	.	.	.	8d/)	.	.	8f#/)	.	.
(8AA/L]	4A/ 4c#/ 4e/	.	.	8AA/L]	.	4r	.	.	4r	.	.	4c#/	-ry.	.	4e/	-ry.	.
!	!LO:SIC:v=s=8GG	!	!	!LO:SIC:v=s=8GG	!	!	!	!	!	!	!	!	!	!	!	!	!
8GG#/	.	.	.	8GG#/	.	.	.	.	.	.	.	.	.	.	.	.	.
8FF#/	4e\ 4cc#\	.	.	8FF#/	.	4A\	Że	.	4A\	Że	.	4r	.	.	4r	.	.
8EE/J)	.	.	.	8EE/J	.	.	.	.	.	.	.	.	.	.	.	.	.
*	*v	*v	*	*	*	*	*	*	*	*	*	*	*	*	*	*	*
=35	=35	=35	=35	=35	=35	=35	=35	=35	=35	=35	=35	=35	=35	=35	=35	=35
!!pagebreak:original
[1DD/ [1D/	2f#\ 2a\ 2dd\	.	[1DD/	.	2D\	Sy-	.	2d\	Sy-	.	1r	.	.	1r	.	.
.	2e\ 2gn\ 2cc#\	.	.	.	2E\	-na	.	2c#\	-na	.	.	.	.	.	.	.
=36	=36	=36	=36	=36	=36	=36	=36	=36	=36	=36	=36	=36	=36	=36	=36	=36
*	*^	*	*	*	*	*	*	*	*	*	*	*	*	*	*	*
1DD/_ 1D/_	2f#\ 2a\ 2dd\	2rcyy	.	1DD/_	.	2F#\	Swe-	.	2d\	Swe-	.	1r	.	.	1r	.	.
.	4cc#/	2gn\	.	.	.	4Gn\	-go	.	4c#\	-go	.	.	.	.	.	.	.
.	4b/	.	.	.	.	4G\	chciał	.	4B\	chciał	.	.	.	.	.	.	.
*	*v	*v	*	*	*	*	*	*	*	*	*	*	*	*	*	*	*
=37	=37	=37	=37	=37	=37	=37	=37	=37	=37	=37	=37	=37	=37	=37	=37	=37
1DD/_ 1D/_	2f#/ 2a/	.	1DD/_	.	2F#\	wćie-	.	2A\	wćie-	.	1r	.	.	1r	.	.
.	4gn/ 4b/	.	.	.	4Gn\	-lić	.	4B\	-lić	.	.	.	.	.	.	.
.	4f#/ 4a/	.	.	.	4F#\	w czło-	.	4A\	w czło-	.	.	.	.	.	.	.
=38	=38	=38	=38	=38	=38	=38	=38	=38	=38	=38	=38	=38	=38	=38	=38	=38
1DD/_ 1D/]	4.f#/ 4.a/	.	1DD/_	.	(4.F#\	-wie-	.	(4.A\	-wie-	.	1r	.	.	1r	.	.
.	8e/ 8gn/	.	.	.	8E\)	.	.	8Gn/)	.	.	.	.	.	.	.	.
.	4d/ 4f#/	.	.	.	4D\	-ka	.	4F#/	-ka	.	.	.	.	.	.	.
.	4f#/ 4a/	.	.	.	4F#\	Co	.	4A/	Co	.	.	.	.	.	.	.
=39	=39	=39	=39	=39	=39	=39	=39	=39	=39	=39	=39	=39	=39	=39	=39	=39
!	!	!	!	!	!LO:SIC:v=s=2G	!	!	!	!	!	!	!	!	!	!	!
2DD/]	2gn\ 2b\	.	2DD/]	.	2G#\	nas	.	2B\	nas	.	1r	.	.	1r	.	.
[2D\	2f#\ 2a\	.	[2D\	.	2F#\	-na-	.	2A\	na-	.	.	.	.	.	.	.
=40	=40	=40	=40	=40	=40	=40	=40	=40	=40	=40	=40	=40	=40	=40	=40	=40
4D/]	2e/ 2gn/	.	4D\]	.	2E\	-u-	.	2Gn/	-u-	.	1r	.	.	1r	.	.
8C#/L	.	.	8C#\L	.	.	.	.	.	.	.	.	.	.	.	.	.
8BB/J	.	.	8BB\J	.	.	.	.	.	.	.	.	.	.	.	.	.
4AA/	4c#/ 4a/	.	4AA/	.	4C#/	-czył	.	4A/	-czył	.	.	.	.	.	.	.
4C#/	4A/ 4e/ 4gn/	.	4C#/	.	4E/	mi-	.	4G/	mi-	.	.	.	.	.	.	.
=41	=41	=41	=41	=41	=41	=41	=41	=41	=41	=41	=41	=41	=41	=41	=41	=41
!	!	!	!	!	!LO:SIC:v=s=2D	!	!	!	!	!	!	!	!	!	!	!
2D\	2A/ 2d/ 2f#/	.	2D\	.	2C#/	-ło-	.	2F#/	-ło-	.	1r	.	.	1r	.	.
4C#/	4e/ 4gn/	.	4C#/	.	4E\	-śći	.	4Gn/	-śći	.	.	.	.	.	.	.
4D/	4d/ 4f#/	.	4D/	.	4D\	i	.	4F#/	i	.	.	.	.	.	.	.
=42	=42	=42	=42	=42	=42	=42	=42	=42	=42	=42	=42	=42	=42	=42	=42	=42
2.AA/	4.c#/ 4.e/	.	2.AA/	.	(4.C#/	wia-	.	(4.E/	wia-	.	2r	.	.	2r	.	.
.	8d/ 8f#/	.	.	.	8D/)	.	.	8F#/)	.	.	.	.	.	.	.	.
.	4c#/ 4e/	.	.	.	4C#/	-ry	.	4E/	-ry	.	4r	.	.	4r	.	.
!	!LO:SIC:v=s=4g	!	!	!	!	!	!	!	!	!	!	!	!	!LO:SIC:v=s=4g	!	!
4C#/	4A/ 4e/ 4g#/	.	4C#/	.	4C#/	Co	.	4A/	Co	.	4e/	Co	.	4g#/	Co	.
=43	=43	=43	=43	=43	=43	=43	=43	=43	=43	=43	=43	=43	=43	=43	=43	=43
2D\	2A/ 2d/ 2f#/	.	2D\	.	2D\	nas	.	2A\	nas	.	2d/	nas	.	2f#/	nas	.
2C#\	2e/ 2gn/	.	2C#\	.	2C#\	na-	.	2A\	na-	.	2e/	na-	.	2gn/	na-	.
=44	=44	=44	=44	=44	=44	=44	=44	=44	=44	=44	=44	=44	=44	=44	=44	=44
2D\	2A/ 2d/ 2f#/	.	2D\	.	2D\	-u-	.	2A\	-u-	.	2d/	-u-	.	2f#/	-u-	.
4C#\	4e/ 4gn/	.	4C#\	.	4C#\	-czył	.	4A\	-czył	.	4e/	-czył	.	4gn/	-czył	.
4D\	4d/ 4f#/	.	4D\	.	4D\	mi-	.	4A\	mi-	.	4d/	mi-	.	4f#/	mi-	.
=45	=45	=45	=45	=45	=45	=45	=45	=45	=45	=45	=45	=45	=45	=45	=45	=45
!!linebreak:original
*^	*	*	*	*	*	*	*	*	*	*	*	*	*	*	*	*
!	!	!LO:SIC:v=niejednoznaczny zapis łuku	!	!	!	!	!	!	!	!	!	!	!	!	!	!	!
2ryy	1AA\	(2A/ 2c#/ 2e/	.	1AA/	.	2AA/	-ło-	.	2A\	-ło-	.	2c#/	-ło-	.	2e/	-ło-	.
4ryy	.	4d/ 4f#/	.	.	.	4AA/	-śći	.	4A\	-śći	.	4d/	-śći	.	4f#/	-śći	.
8A/L	.	4c#/) 4e/	.	.	.	4AA/	i	.	8A\L	i	.	4c#/	i	.	4e/	i	.
8Gn/J	.	.	.	.	.	.	.	.	8Gn\J	.	.	.	.	.	.	.	.
=46	=46	=46	=46	=46	=46	=46	=46	=46	=46	=46	=46	=46	=46	=46	=46	=46	=46
1F#/ 1A/	4D\	1d/	.	4D\	.	1D\	wia-	.	1F#/	wia-	.	1d/	wia-	.	1d/	wia-	.
.	4AA\	.	.	4AA/	.	.	.	.	.	.	.	.	.	.	.	.	.
.	4FF#\	.	.	4FF#/	.	.	.	.	.	.	.	.	.	.	.	.	.
.	4AA\	.	.	4AA/	.	.	.	.	.	.	.	.	.	.	.	.	.
*v	*v	*	*	*	*	*	*	*	*	*	*	*	*	*	*	*	*
=47	=47	=47	=47	=47	=47	=47	=47	=47	=47	=47	=47	=47	=47	=47	=47	=47
2DD/	2d/	.	2DD/	.	2D/	-ry	.	2F#/	-ry	.	2d/	-ry.	.	2d/	-ry	.
[2D\	2f#\ 2a\ 2dd\	.	[2D\	.	2r	.	.	2r	.	.	2r	.	.	2r	.	.
=48	=48	=48	=48	=48	=48	=48	=48	=48	=48	=48	=48	=48	=48	=48	=48	=48
4D\]	1a\ 1ee\	.	4D\]	.	1r	.	.	1r	.	.	1r	.	.	1r	.	.
8C#\L	.	.	8C#\L	.	.	.	.	.	.	.	.	.	.	.	.	.
8BB\J	.	.	8BB\J	.	.	.	.	.	.	.	.	.	.	.	.	.
4C#\	.	.	4C#/	.	.	.	.	.	.	.	.	.	.	.	.	.
4AA\	.	.	4AA/	.	.	.	.	.	.	.	.	.	.	.	.	.
=49	=49	=49	=49	=49	=49	=49	=49	=49	=49	=49	=49	=49	=49	=49	=49	=49
*	*^	*	*	*	*	*	*	*	*	*	*	*	*	*	*	*
*	*	*^	*	*	*	*	*	*	*	*	*	*	*	*	*	*	*
!	!	!LO:TX:t=P:brak wyświetlania łuku:problem	!	!	!	!	!	!	!	!	!	!	!	!	!	!	!	!
4D\	2ff#/	[2a\	1dd/	.	4D\	.	1r	.	.	1r	.	.	1r	.	.	1r	.	.
4C#\	.	.	.	.	4C#\	.	.	.	.	.	.	.	.	.	.	.	.	.
4BB\	2gg#X/	2b\	.	.	4BB\	.	.	.	.	.	.	.	.	.	.	.	.	.
4E\	.	.	.	.	4E\	.	.	.	.	.	.	.	.	.	.	.	.	.
*	*v	*v	*v	*	*	*	*	*	*	*	*	*	*	*	*	*	*	*
=50	=50	=50	=50	=50	=50	=50	=50	=50	=50	=50	=50	=50	=50	=50	=50	=50
2AA/	2a\ 2cc#\ 2ee\ 2aa\]	.	2AA/	.	1r	.	.	1r	.	.	1r	.	.	1r	.	.
[2A\	2c#/ 2e/ 2a/	.	[2A\	.	.	.	.	.	.	.	.	.	.	.	.	.
=51	=51	=51	=51	=51	=51	=51	=51	=51	=51	=51	=51	=51	=51	=51	=51	=51
4A\]	1e/ 1b/	.	4A\]	.	1r	.	.	1r	.	.	1r	.	.	1r	.	.
8G#X\L	.	.	8G#X\L	.	.	.	.	.	.	.	.	.	.	.	.	.
8F#\J	.	.	8F#\J	.	.	.	.	.	.	.	.	.	.	.	.	.
4G#\	.	.	4G#\	.	.	.	.	.	.	.	.	.	.	.	.	.
4E\	.	.	4E\	.	.	.	.	.	.	.	.	.	.	.	.	.
=52	=52	=52	=52	=52	=52	=52	=52	=52	=52	=52	=52	=52	=52	=52	=52	=52
!	!	!LO:DY:b:rj	!	!	!	!	!	!	!	!	!	!	!	!	!	!
4A\	[1e/ 1a/ [1cc#/	ff	4A\	.	2r	.	.	2r	.	.	2r	.	.	2r	.	.
8AA/L	.	.	8AA/L	.	.	.	.	.	.	.	.	.	.	.	.	.
8C#/J	.	.	8C#/J	.	.	.	.	.	.	.	.	.	.	.	.	.
4E\	.	.	4E\	.	4r	.	ff	4r	.	ff	4r	.	ff	4r	.	ff
4C#\	.	.	4C#/	.	4A\	Ten	.	4e\	Ten	.	4a\	Ten	.	4cc#\	Ten	.
=53	=53	=53	=53	=53	=53	=53	=53	=53	=53	=53	=53	=53	=53	=53	=53	=53
4AA/	1e/_ 1a/ 1cc#/_	.	4AA/	.	2A\	smier-	.	2e\	smier-	.	2a\	smier-	.	2cc#\	smier-	.
4C#/	.	.	4C#/	.	.	.	.	.	.	.	.	.	.	.	.	.
4E/	.	.	4E/	.	2A\	-ćią	.	2e\	-ćią	.	2a\	-ćią	.	2cc#\	-ćią	.
4C#/	.	.	4C#/	.	.	.	.	.	.	.	.	.	.	.	.	.
=54	=54	=54	=54	=54	=54	=54	=54	=54	=54	=54	=54	=54	=54	=54	=54	=54
!!pagebreak:original
4AA/	1e/] 1a/ 1cc#/]	.	4AA/	.	2A\	swo-	.	2e\	swo-	.	2a/	swo-	.	2cc#\	swo-	.
4C#/	.	.	4C#/	.	.	.	.	.	.	.	.	.	.	.	.	.
4E/	.	.	4E\	.	4A\	-ią	.	4e\	-ią	.	4a/	-ią	.	4cc#\	-ią	.
4A\	.	.	4A\	.	4A\	rod	.	4e\	ród	.	4a/	ród	.	4cc#\	ród	.
=55	=55	=55	=55	=55	=55	=55	=55	=55	=55	=55	=55	=55	=55	=55	=55	=55
*	*^	*	*	*	*	*	*	*	*	*	*	*	*	*	*	*
4G#\	2b/ 2dd/	2.e\	.	4G#\	.	2G#\	ludz-	.	2e\	ludz-	.	2b/	ludz-	.	2dd\	ludz-	.
4E\	.	.	.	4E\	.	.	.	.	.	.	.	.	.	.	.	.	.
4A\	2a/ 2cc#/	.	.	4A\	.	4A\	-ki	.	4e\	-ki	.	4a/	-ki	.	4cc#\	-ki	.
4F#\	.	4f#\	.	4F#\	.	4F#\	wy-	.	4f#\	wy-	.	4a/	wy-	.	4cc#\	wy-	.
=56	=56	=56	=56	=56	=56	=56	=56	=56	=56	=56	=56	=56	=56	=56	=56	=56	=56
!	!	!	!	!	!	!	!	!	!LO:SIC:v=niejednoznaczny zapis łuku	!	!	!	!	!	!	!	!
4D\	2a/ 2b/	2f#\	.	4D\	.	(4D\	-ba-	.	(2f#\	-ba-	.	(2a/	-ba-	.	1b\	-ba-	.
4D#X\	.	.	.	4D#X\	.	4D#X\	.	.	.	.	.	.	.	.	.	.	.
4E\	2g#/	4e\	.	4E/	.	2E\)	.	.	4e\	.	.	2g#/)	.	.	.	.	.
4EE/	.	4d\	.	4EE/	.	.	.	.	4d\)	.	.	.	.	.	.	.	.
*	*v	*v	*	*	*	*	*	*	*	*	*	*	*	*	*	*	*
=57	=57	=57	=57	=57	=57	=57	=57	=57	=57	=57	=57	=57	=57	=57	=57	=57
4A\	2c#/ 2e/ 2a/	.	4A\	.	2A\	-wił	.	2c#\	-wił	.	2a/	-wił	.	2a\	-wił	.
8AA/L	.	.	8AA/L	.	.	.	.	.	.	.	.	.	.	.	.	.
8C#/J	.	.	8C#/J	.	.	.	.	.	.	.	.	.	.	.	.	.
4E/	2e/ 2a/ [2cc#/	.	4E\	.	4r	.	.	4r	.	.	4r	.	.	4r	.	.
4C#/	.	.	4C#\	.	4A\	i	.	4e\	i	.	4a/	i	.	4cc#\	i	.
=58	=58	=58	=58	=58	=58	=58	=58	=58	=58	=58	=58	=58	=58	=58	=58	=58
4AA/	1e/ 1a/ 1cc#/_	.	4AA/	.	2A\	krwią	.	2e\	krwią	.	2a/	krwią	.	2cc#\	krwią	.
4C#/	.	.	4C#/	.	.	.	.	.	.	.	.	.	.	.	.	.
4E/	.	.	4E/	.	2A\	do	.	2e\	do	.	2a/	do	.	2cc#\	do	.
4C#/	.	.	4C#/	.	.	.	.	.	.	.	.	.	.	.	.	.
=59	=59	=59	=59	=59	=59	=59	=59	=59	=59	=59	=59	=59	=59	=59	=59	=59
4AA/	1e/ 1a/ 1cc#/]	.	4AA/	.	2A\	Nie-	.	2e\	Nie-	.	2a/	Nie-	.	2cc#\	Nie-	.
4C#/	.	.	4C#/	.	.	.	.	.	.	.	.	.	.	.	.	.
4E/	.	.	4E/	.	4A\	-ba	.	4e\	-ba	.	4a/	-ba	.	4cc#\	-ba	.
4A/	.	.	4A\	.	4A\	o-	.	4e\	o-	.	4a/	o-	.	4cc#\	o-	.
=60	=60	=60	=60	=60	=60	=60	=60	=60	=60	=60	=60	=60	=60	=60	=60	=60
*	*^	*	*	*	*	*	*	*	*	*	*	*	*	*	*	*
4G#\	2b/ 2dd/	2.e\	.	4G#\	.	2G#\	-zna-	.	2e\	-zna-	.	2b/	-zna-	.	2dd\	-zna-	.
4E\	.	.	.	4E\	.	.	.	.	.	.	.	.	.	.	.	.	.
4A\	2a/ 2cc#/	.	.	4A\	.	4A\	-czył	.	4e\	-czył	.	4a/	-czył	.	4cc#\	-czył	.
4F#\	.	4f#\	.	4F#\	.	4F#\	nam	.	4f#\	nam	.	4a/	nam	.	4cc#\	nam	.
=61	=61	=61	=61	=61	=61	=61	=61	=61	=61	=61	=61	=61	=61	=61	=61	=61	=61
4D\	2f#\ 2a\ 2b\	2rAyy	.	4D\	.	4D\	sla-	.	2f#\	sla-	.	2a/	sla-	.	1b\	sla-	.
4D#X\	.	.	.	4D#X\	.	4D#X\	.	.	.	.	.	.	.	.	.	.	.
!	!LO:SIC:v=niejednoznaczny początek łuku	!	!	!	!	!	!	!	!	!	!	!	!	!	!	!	!
4E\	(2g#\	4e\	.	4E\	.	2E\	.	.	4e\	.	.	2g#/	.	.	.	.	.
4EE/	.	4d\	.	4EE/	.	.	.	.	4d\	.	.	.	.	.	.	.	.
*	*v	*v	*	*	*	*	*	*	*	*	*	*	*	*	*	*	*
=62	=62	=62	=62	=62	=62	=62	=62	=62	=62	=62	=62	=62	=62	=62	=62	=62
!!linebreak:original
4AA/	2c#/ 2e/ 2a/)	.	4AA/	.	2A\	-dy	.	2c#\	-dy	.	2a/	-dy	.	2a/	-dy	.
4A\	.	.	4A\	.	.	.	.	.	.	.	.	.	.	.	.	.
4E\	2e\ 2a\ [2ee\	.	4E\	.	4r	.	.	4r	.	.	4r	.	.	4r	.	.
4C#\	.	.	4C#\	.	4C#/	a	.	4A\	a	.	4a/	a	.	4ee\	a	.
=63	=63	=63	=63	=63	=63	=63	=63	=63	=63	=63	=63	=63	=63	=63	=63	=63
4AA/	1e/ 1a/ 1ee/]	.	4AA/	.	2C#/	po-	.	2A\	po-	.	2a/	po-	.	2ee\	po-	.
!	!	!	!LO:SIC:v=s=4c#	!	!	!	!	!	!	!	!	!	!	!	!	!
4c#\	.	.	4B\	.	.	.	.	.	.	.	.	.	.	.	.	.
4A\	.	.	4A\	.	2C#/	-Bo-	.	2A\	-Bo-	.	2a/	-Bo-	.	2ee\	-Bo-	.
4E\	.	.	4E\	.	.	.	.	.	.	.	.	.	.	.	.	.
=64	=64	=64	=64	=64	=64	=64	=64	=64	=64	=64	=64	=64	=64	=64	=64	=64
4C#/	1e/ 1a/ 1ee/	.	4C#\	.	2C#/	-że-	.	2A\	-że-	.	2a/	-że-	.	2ee\	-że-	.
4A\	.	.	4A\	.	.	.	.	.	.	.	.	.	.	.	.	.
4E\	.	.	4E\	.	4C#/	-mu	.	4A\	-mu	.	4a/	-mu	.	4ee\	-mu	.
4C#/	.	.	4C#\	.	4C#/	na	.	4A\	na	.	4a/	na	.	4ee\	na	.
=65	=65	=65	=65	=65	=65	=65	=65	=65	=65	=65	=65	=65	=65	=65	=65	=65
*	*^	*	*	*	*	*	*	*	*	*	*	*	*	*	*	*
!	!LO:SIC:v=niejednoznaczny zapis łuku	!	!	!	!	!	!	!	!	!	!	!	!	!	!	!	!
4D\	2dd/ 2ff#/	(1a\	.	4D\	.	2D/	wie-	.	2A\	wie-	.	2a/	wie-	.	2ff#\	wie-	.
4A\	.	.	.	4A\	.	.	.	.	.	.	.	.	.	.	.	.	.
4C#/	2ee/)	.	.	4C#\	.	4C#/	-ki	.	4A\	-ki	.	4a/	-ki	.	4ee\	-ki	.
4A\	.	.	.	4A\	.	4C#/	zo-	.	4A\	zo-	.	4a/	zo-	.	4ee\	zo-	.
*	*v	*v	*	*	*	*	*	*	*	*	*	*	*	*	*	*	*
=66	=66	=66	=66	=66	=66	=66	=66	=66	=66	=66	=66	=66	=66	=66	=66	=66
4BB/	2g#/ 2b/ 2ee/	.	4BB/	.	1BB/	-sta-	.	2B\	-sta-	.	2g#/	-sta-	.	2ee\	-sta-	.
4B\	.	.	4B\	.	.	.	.	.	.	.	.	.	.	.	.	.
4BB/	2f#/ 2a/ 2b/ 2dd#X/	.	4BB/	.	.	.	.	2A\	.	.	2f#/	.	.	2dd#X\	.	.
4B\	.	.	4B\	.	.	.	.	.	.	.	.	.	.	.	.	.
=67	=67	=67	=67	=67	=67	=67	=67	=67	=67	=67	=67	=67	=67	=67	=67	=67
4E/	1g#\ 1b\ 1ee\	.	4E\	.	2E\	-wił	.	2G#/	-wił	.	2e/	-wił	.	2ee\	-wił	.
4EE/	.	.	4EE/	.	.	.	.	.	.	.	.	.	.	.	.	.
4E/	.	.	4E\	.	4r	.	.	4r	.	.	4r	.	.	4r	.	.
4D/	.	.	4D\	.	4D\	Na-	.	4B\	Na-	.	4g#/	Na-	.	4ee\	Na-	.
=68	=68	=68	=68	=68	=68	=68	=68	=68	=68	=68	=68	=68	=68	=68	=68	=68
4C#\	1e/ 1a/ 1ee/	.	4C#\	.	2C#/	-u-	.	2A\	-u-	.	2a/	-u-	.	2ee\	-u-	.
4A\	.	.	4A\	.	.	.	.	.	.	.	.	.	.	.	.	.
4E\	.	.	4E\	.	2C#/	-ki	.	2A\	-ki	.	2a/	-ki	.	2ee\	-ki	.
4C#\	.	.	4C#\	.	.	.	.	.	.	.	.	.	.	.	.	.
=69	=69	=69	=69	=69	=69	=69	=69	=69	=69	=69	=69	=69	=69	=69	=69	=69
4D\	2a\ 2dd\ 2ff#\	.	4D\	.	2D/	Swię-	.	2A\	Swię-	.	2a/	Swię-	.	2ff#\	Swię-	.
4D\ 4d\	.	.	4d\	.	.	.	.	.	.	.	.	.	.	.	.	.
4C#\ 4c#\	4e\ 4a\ 4ee\	.	4c#\	.	4C#/	-te	.	4e\	-te	.	4a/	-te	.	4ee\	-te	.
4BB\ 4B\	4e\ 4g#\ 4dd\	.	4B\	.	4BB/	i	.	4e\	i	.	4g#/	i	.	4dd\	i	.
=70	=70	=70	=70	=70	=70	=70	=70	=70	=70	=70	=70	=70	=70	=70	=70	=70
!!pagebreak:original
*	*^	*	*	*	*	*	*	*	*	*	*	*	*	*	*	*
4AA\ 4A\	2a/ 2cc#/	4e\	.	4A\	.	(4AA/	Swię-	.	(4e\	Swię-	.	2a/	Swię-	.	2cc#\	swię-	.
4FF#\ 4F#\	.	4f#\	.	4F#\	.	4A\)	.	.	4f#\)	.	.	.	.	.	.	.	.
2DD/ 2D/	4dd/	4f#\ 4a\	.	4D\	.	4D\	-te	.	4f#\	-te	.	4a/	-te	.	4dd\	-te	.
.	4b/	4d\ 4f#\	.	4d\	.	4D\	przy-	.	4d\	przy-	.	4f#/	przy-	.	4b\	przy-	.
*	*v	*v	*	*	*	*	*	*	*	*	*	*	*	*	*	*	*
=71	=71	=71	=71	=71	=71	=71	=71	=71	=71	=71	=71	=71	=71	=71	=71	=71
!LO:TX:t=P:1EE 1Ena trzecią miarę:problem	!	!	!	!	!	!	!	!	!	!	!	!	!	!	!	!
1EE/ 1E/	2c#/ 2e/ 2a/	.	4E\	.	1E\	-kła-	.	2c#\	-kła-	.	1e/	-kła-	.	2a\	-kła-	.
.	.	.	4e\	.	.	.	.	.	.	.	.	.	.	.	.	.
.	2B/ 2d/ 2e/ 2g#/	.	4E\	.	.	.	.	2B\	.	.	.	.	.	2g#/	.	.
.	.	.	4e\	.	.	.	.	.	.	.	.	.	.	.	.	.
=72	=72	=72	=72	=72	=72	=72	=72	=72	=72	=72	=72	=72	=72	=72	=72	=72
!	!	!LO:HP:b	!	!	!	!	!	!	!	!	!	!	!	!	!	!
2AA/ 2A/	2c#/ 2e/ 2a/	>	2A\	.	2A\	-dy	.	2c#\	-dy	.	2e/	-dy	.	2a/	-dy	.
2GGn/ [2Gn/	2e/ 2a/ 2cc#/	]	[2Gn\	.	[2Gn\	Na-	.	2e\	Na-	.	2a/	Na-	.	2cc#\	Na-	.
=73	=73	=73	=73	=73	=73	=73	=73	=73	=73	=73	=73	=73	=73	=73	=73	=73
!	!LO:SIC:v=s=4GG	!	!	!	!	!	!	!	!	!	!	!	!	!	!	!
4GG#/ 4G/]	2.d/ 2.a/ 2.dd/	.	4G\]	.	4G\]	.	.	2.d\	-u-	.	2.a/	-u-	.	2.dd\	-u-	.
8FF#/L 8F#/	.	.	8F#\L	.	8F#\L	-u-	.	.	.	.	.	.	.	.	.	.
8EE/J 8E/	.	.	8E\J	.	8E\J	.	.	.	.	.	.	.	.	.	.	.
4FF#/ 4F#/	.	.	4F#\	.	4F#\	-ki	.	.	.	.	.	.	.	.	.	.
4DD/ 4D/	4a\ 4dd\ 4ff#\	.	4D\	.	4D\	.	.	4d\	-ki	.	4a/	-ki	.	4ff#\	-ki	.
=74	=74	=74	=74	=74	=74	=74	=74	=74	=74	=74	=74	=74	=74	=74	=74	=74
!LO:TX:t=P:1EE 1Ena trzecią miarę:problem	!LO:SIC:v=1 półnuta	!	!	!	!	!	!	!	!	!	!	!	!	!	!	!
!	!LO:N:vis=2	!	!	!	!	!	!	!	!	!	!	!	!	!	!	!
[1EE/ [1E/	2.a\ 2.cc#\ 2.ee\	.	4E\	.	2E\	Swię-	.	2.c#\	Swię-	.	2.a/	Swię-	.	2.ee\	Swię-	.
.	.	.	4e\	.	.	.	.	.	.	.	.	.	.	.	.	.
.	.	.	4E\	.	4E\	-te	.	.	.	.	.	.	.	.	.	.
.	4e\ 4a\ 4cc#\	.	4e\	.	4E\	i	.	4A\	-te	.	4a/	-te	.	4cc#\	-te	.
=75	=75	=75	=75	=75	=75	=75	=75	=75	=75	=75	=75	=75	=75	=75	=75	=75
1EE/] 1E/]	4e\ 4cc#\ 4ee\	.	2E\	.	2E\	Swię-	.	4A\	i	.	4cc#\	i	.	4ee\	i	.
.	4d\ 4b\ 4dd\	.	.	.	.	.	.	4B\	Swię-	.	4b\	Swię-	.	4dd\	Swię-	.
!	!	!	!LO:SIC:v=s=2EE	!	!	!	!	!	!	!	!	!	!	!	!	!
.	4c#\ 4a\ 4cc#\	.	2FF#/	.	4E\	-te	.	4c#\	-te	.	4a\	-te	.	4cc#\	-te	.
.	4B\ 4g#\ 4b\	.	.	.	4E\	przy-	.	4d\	przy-	.	4g#/	przy-	.	4b\	przy-	.
=76	=76	=76	=76	=76	=76	=76	=76	=76	=76	=76	=76	=76	=76	=76	=76	=76
2AA\ 2A\	2c#/ 2e/ 2a/	.	2AA/	.	4A\	-kła-	.	4c#\	-kła-	.	4a/	-kła-	.	4a/	-kła-	.
.	.	.	.	.	8A\	-dy	.	8c#\	-dy	.	8a/	-dy	.	8a/	-dy	.
.	.	.	.	.	8r	.	.	8r	.	.	8r	.	.	8r	.	.
2GGn\ [2Gn\	2e/ 2a/ 2cc#/	.	[2Gn\	.	[2Gn\	Na-	.	2e\	Na-	.	2a/	Na-	.	2cc#\	Na-	.
=77	=77	=77	=77	=77	=77	=77	=77	=77	=77	=77	=77	=77	=77	=77	=77	=77
*^	*	*	*	*	*	*	*	*	*	*	*	*	*	*	*	*
!	!	!LO:SIC:v=s=4GG	!	!	!	!	!	!	!	!	!	!	!	!	!	!	!
4GG#\ 4G\]	2rEEyy	2.d/ 2.a/ 2.dd/	.	4G\]	.	4G\]	.	.	2.d\	-u-	.	2.a/	-u-	.	2.dd\	-u-	.
8FF#\L 8F#\	.	.	.	8F#\L	.	8F#\L	-u-	.	.	.	.	.	.	.	.	.	.
8EE\J 8E\	.	.	.	8E\J	.	8E\J	.	.	.	.	.	.	.	.	.	.	.
4FF#\ 4F#\	4rCCyy	.	.	4F#\	.	4F#\	-ki	.	.	.	.	.	.	.	.	.	.
4D/	4DD\	4a\ 4dd\ 4ff#\	.	4D\	.	4D\	.	.	4d\	-ki	.	4a/	-ki	.	4ff#\	-ki	.
*v	*v	*	*	*	*	*	*	*	*	*	*	*	*	*	*	*	*
=78	=78	=78	=78	=78	=78	=78	=78	=78	=78	=78	=78	=78	=78	=78	=78	=78
!!linebreak:original
!LO:TX:t=P:1EE 1Ena trzecią miarę:problem	!	!	!	!	!	!	!	!	!	!	!	!	!	!	!	!
1EE/ 1E/	2.a\ 2.cc#\ 2.ee\	.	4E\	.	2E\	Swię-	.	2.c#\	Swię-	.	2.a/	Swię-	.	2.ee\	Swię-	.
.	.	.	4e\	.	.	.	.	.	.	.	.	.	.	.	.	.
.	.	.	4E\	.	4E\	-te	.	.	.	.	.	.	.	.	.	.
.	4e\ 4a\ 4cc#\	.	4e\	.	4E\	i	.	4A\	-te	.	4a/	-te	.	4cc#\	-te	.
=79	=79	=79	=79	=79	=79	=79	=79	=79	=79	=79	=79	=79	=79	=79	=79	=79
!LO:TX:t=P:1EE 1Ena trzecią miarę:problem	!	!	!	!	!	!	!	!	!	!	!	!	!	!	!	!
1EE/ 1E/	4e\ 4cc#\ 4ee\	.	2E\	.	2E\	Swię-	.	4A\	i	.	4cc#\	i	.	4ee\	i	.
.	4d\ 4b\ 4dd\	.	.	.	.	.	.	4B\	Swię-	.	4b\	Swię-	.	4dd\	Swię-	.
.	4c#\ 4a\ 4cc#\	.	2EE/	.	4E\	-te	.	4c#\	-te	.	4a/	-te	.	4cc#\	-te	.
.	4d\ 4g#\ 4b\	.	.	.	4E\	przy-	.	4d\	przy-	.	4g#/	przy-	.	4b\	przy-	.
=80	=80	=80	=80	=80	=80	=80	=80	=80	=80	=80	=80	=80	=80	=80	=80	=80
2FF#/ 2F#/	2c#\ 2a\	.	2FF#/	.	4F#\	-kła-	.	4c#\	-kła-	.	4a/	-kła-	.	4a/	-kła-	.
!	!	!	!	!	!LO:SIC:v=w innych partiach ósemka	!	!	!	!	!	!	!	!	!	!	!
.	.	.	.	.	4F#\	-dy	.	8c#\	-dy	.	8a/	-dy	.	8a/	-dy	.
.	.	.	.	.	.	.	.	8r	.	.	8r	.	.	8r	.	.
2DD/ 2D/	2a\ 2dd\ 2ff#\	.	2DD/	.	2D\	Swię-	.	2d\	Swię-	.	2a/	Swię-	.	2ff#\	Swię-	.
=81	=81	=81	=81	=81	=81	=81	=81	=81	=81	=81	=81	=81	=81	=81	=81	=81
!LO:TX:t=P:1EE 1Ena trzecią miarę:problem	!	!	!	!	!	!	!	!	!	!	!	!	!	!	!	!
1EE/ 1E/	2a\ 2cc#\ 2ee\	.	2EE/	.	2E\	-te	.	2c#\	-te	.	2a/	-te	.	2ee\	-te	.
.	2b\ 2dd\ 2ee\ 2gg#\	.	2E\	.	2E\	przy-	.	2B\	przy-	.	4e/	przy-	.	2g#/	przy-	.
.	.	.	.	.	.	.	.	.	.	.	4d/	.	.	.	.	.
=82	=82	=82	=82	=82	=82	=82	=82	=82	=82	=82	=82	=82	=82	=82	=82	=82
4AAA/ 4AA/	1a\ 1cc#\ 1ee\ 1aa\	.	4AA/	.	1AA/	-kła-	.	1A\	-kła-	.	1c#/	-kła-	.	1a/	-kła-	.
4A\	.	.	4A\	.	.	.	.	.	.	.	.	.	.	.	.	.
4E\	.	.	4E\	.	.	.	.	.	.	.	.	.	.	.	.	.
4C#\	.	.	4C#\	.	.	.	.	.	.	.	.	.	.	.	.	.
=83	=83	=83	=83	=83	=83	=83	=83	=83	=83	=83	=83	=83	=83	=83	=83	=83
*	*^	*	*	*	*	*	*	*	*	*	*	*	*	*	*	*
4AA/	4a/ 4cc#/ 4ee/ 4aa/	4ryy	.	4AA/	.	2AA/	-dy	.	2A/	-dy	.	2c#/	-dy	.	2a/	-dy	.
!	!	!LO:TX:t=P:2a na 2i:problem	!	!	!	!	!	!	!	!	!	!	!	!	!	!	!
8AA/L	8cc#/L	2a\	.	8AA/L	.	.	.	.	.	.	.	.	.	.	.	.	.
8BB/J	8dd/J	.	.	8BB/J	.	.	.	.	.	.	.	.	.	.	.	.	.
4C#/	4ee/	.	.	4C#/	.	2r	.	.	2r	.	.	2r	.	.	2r	.	.
4AA/	4cc#/	4a\	.	4AA/	.	.	.	.	.	.	.	.	.	.	.	.	.
=84	=84	=84	=84	=84	=84	=84	=84	=84	=84	=84	=84	=84	=84	=84	=84	=84	=84
*	*	*	*	*	*	*	*	*	*^	*	*	*	*	*	*	*	*
!LO:TX:t=P:1D 1dd na trzecią miarę:problem	!	!	!	!LO:TX:a:i:t=Adagio	!	!	!	!	!	!	!	!	!	!	!	!LO:TX:a:i:t=Adagio	!	!
!	!LO:TX:a:i:t=Adagio	!	!	!	!	!	!	!	!	!	!	!	!	!	!	!	!	!
1D\	1dd/	2.f#\ 2.a\	.	1D\	.	1D\	A-	.	2.A/	2ryy	A-	.	2.f#/	A-	.	1dd\	A-	.
.	.	.	.	.	.	.	.	.	.	4ryy	.	.	.	.	.	.	.	.
.	.	4fn\ 4g#\ 4b\	.	.	.	.	.	.	4G#/ 4B/	4G#\	.	.	4fn/	.	.	.	.	.
*	*v	*v	*	*	*	*	*	*	*v	*v	*	*	*	*	*	*	*	*
=85	=85	=85	=85	=85	=85	=85	=85	=85	=85	=85	=85	=85	=85	=85	=85	=85
1AA\; 1A\	1e/; 1a/ 1cc#/	.	1AA/;	.	1AA\; 1A\	-men.	.	1A\; 1c#\	-men.	.	1e/;	-men.	.	1cc#\;	-men.	.
==	==	==	==	==	==	==	==	==	==	==	==	==	==	==	==	==
*-	*-	*-	*-	*-	*-	*-	*-	*-	*-	*-	*-	*-	*-	*-	*-	*-
!!!system-decoration: s1,s2,s3,s4,s5{(s6,s7)}
!!!RDF**kern: > = above
!!!RDF**kern: < = below
!!!ENC: Leszek Kubiak
!!!END: data 2020-04-04
